**kern
*staff1
!!pagebreak:original
*I"P1
=1-
*clefG2
*k[]
*met(c|)
*M2/2
1cc
=2
1dd
=3
1ff
=4
1ee
=5
4r
4aa\
4aa\
4aa\
=6
2.gg\
16ff\LL
16ee\
16dd\
16cc\JJ
=7
4ff\
4ff\
4ee\
4ee\
=8
8cc#\L
8dd\
8ee\
8dd\J
8ccn/L
8b/
8a/
8g/J
*-
